espnplus.svg

<svg viewBox="0 0 24 24" xmlns="http://www.w3.org/2000/svg"><path d="M13.3722 9.57848C14.2601 9.57848 14.5022 10.1031 14.435 10.6816C14.4215 10.7892 14.4081 10.9372 14.4081 10.9372L5.00448 10.9372C5.00448 10.9372 5.03139 10.7489 5.0583 10.5336C5.12556 9.96861 5.59641 9.57848 6.32287 9.57848L13.3722 9.57848ZM14.3408 11.4619C14.3408 11.4619 14.3139 11.6502 14.287 11.8655C14.2332 12.2825 13.9238 12.5919 13.3587 12.5919L11.3543 12.5919L11.139 14.4215L9.55157 14.4215L9.9148 11.4619C9.90135 11.4619 14.3408 11.4619 14.3408 11.4619ZM0.591928 9.57848L4.8565 9.57848L4.69507 10.9372L0.430493 10.9372L0.591928 9.57848ZM0.363229 11.4484L4.6278 11.4484L4.49327 12.5785L1.81614 12.5785L1.74888 13.13L4.41256 13.13L4.26457 14.4215L0 14.4215L0.363229 11.4484ZM14.8924 9.57848L18.3632 9.57848C18.9148 9.57848 19.4798 9.83408 19.3722 10.722C19.3587 10.8834 19.3453 10.9372 19.3453 10.9372L14.7309 10.9372L14.8924 9.57848L14.8924 9.57848ZM14.3004 14.4215L14.6637 11.4619L16.2511 11.4619L15.8879 14.4215L14.3004 14.4215ZM17.3274 14.4215L17.6906 11.4619L19.2915 11.4619L18.9283 14.4215L17.3274 14.4215L17.3274 14.4215ZM8.44843 11.4619C8.94619 11.4619 9.57848 11.6771 9.4574 12.6054C9.43049 12.7668 9.36323 13.5202 9.26906 13.7354C9 14.3946 8.20628 14.4081 8.09865 14.4215C7.96413 14.4215 4.58744 14.4215 4.58744 14.4215L4.74888 13.13L7.84305 13.13L7.91031 12.5785C7.91031 12.5785 6.05381 12.5785 5.75785 12.5785C5.21973 12.5785 4.8296 12.2287 4.95067 11.4484C5.48879 11.4484 8.16592 11.4619 8.44843 11.4619L8.44843 11.4619Z" fill="#000000"/><path d="M22.843 11.5022L22.991 10.278L21.7534 10.278L21.6054 11.5022L20.4484 11.5022L20.3139 12.713L21.4709 12.713L21.3229 13.9641L22.5605 13.9641L22.7085 12.713L23.8655 12.713L24 11.5022L22.843 11.5022Z" fill="#f9b300"/></svg>

<svg viewBox="0 0 24 24" xmlns="http://www.w3.org/2000/svg"><path d="M13.372 9.578c.888 0 1.13.525 1.063 1.104-.014.107-.027.255-.027.255H5.004s.027-.188.054-.403c.068-.565.538-.956 1.265-.956h7.05Zm.969 1.884s-.027.188-.054.404c-.054.417-.363.726-.928.726h-2.005l-.215 1.83H9.552l.363-2.96h4.426ZM.59 9.578h4.265l-.16 1.36H.43l.162-1.36Zm-.228 1.87h4.265l-.135 1.13H1.816l-.067.552h2.664l-.148 1.291H0l.363-2.973Zm14.53-1.87h3.47c.552 0 1.117.256 1.01 1.144a1.628 1.628 0 0 1-.028.215h-4.614l.161-1.359Zm-.593 4.844.364-2.96h1.587l-.363 2.96H14.3Zm3.027 0 .364-2.96h1.6l-.363 2.96h-1.6Zm-8.879-2.96c.498 0 1.13.215 1.01 1.143-.028.162-.095.915-.189 1.13-.269.66-1.063.673-1.17.687H4.587l.162-1.292h3.094l.067-.552H5.758c-.538 0-.928-.35-.807-1.13.538 0 3.215.014 3.497.014Z"/><path d="m22.843 11.502.148-1.224h-1.238l-.148 1.224h-1.157l-.134 1.211h1.157l-.148 1.251h1.238l.148-1.251h1.157l.134-1.21h-1.157Z" fill="#f9b300"/></svg>
